src/pos-icons/tag-text-outline.svg

<svg height="24" viewBox="0 0 24 24" width="24" xmlns="http://www.w3.org/2000/svg"><path d="m21.4 11.6-9-9c-.4-.4-.9-.6-1.4-.6h-7c-1.1 0-2 .9-2 2v7c0 .5.2 1 .6 1.4l9 9c.4.4.9.6 1.4.6s1-.2 1.4-.6l7-7c.4-.4.6-.9.6-1.4s-.2-1-.6-1.4m-8.4 8.4-9-9v-7h7l9 9m-13.5-8c.8 0 1.5.7 1.5 1.5s-.7 1.5-1.5 1.5-1.5-.7-1.5-1.5.7-1.5 1.5-1.5m3.6 3.9 1.4-1.4 5.5 5.5-1.4 1.4zm-2.5 2.5 1.4-1.4 4 4-1.4 1.4z"/></svg>

<?xml version="1.0" encoding="UTF-8"?><!DOCTYPE svg PUBLIC "-//W3C//DTD SVG 1.1//EN" "http://www.w3.org/Graphics/SVG/1.1/DTD/svg11.dtd"><svg xmlns="http://www.w3.org/2000/svg" xmlns:xlink="http://www.w3.org/1999/xlink" version="1.1" id="mdi-tag-text-outline" width="24" height="24" viewBox="0 0 24 24"><path d="M21.4 11.6L12.4 2.6C12 2.2 11.5 2 11 2H4C2.9 2 2 2.9 2 4V11C2 11.5 2.2 12 2.6 12.4L11.6 21.4C12 21.8 12.5 22 13 22C13.5 22 14 21.8 14.4 21.4L21.4 14.4C21.8 14 22 13.5 22 13C22 12.5 21.8 12 21.4 11.6M13 20L4 11V4H11L20 13M6.5 5C7.3 5 8 5.7 8 6.5S7.3 8 6.5 8 5 7.3 5 6.5 5.7 5 6.5 5M10.1 8.9L11.5 7.5L17 13L15.6 14.4L10.1 8.9M7.6 11.4L9 10L13 14L11.6 15.4L7.6 11.4Z" /></svg>
